src/assets/orangering.svg

<svg width="27" height="26" viewBox="0 0 27 26" fill="none" xmlns="http://www.w3.org/2000/svg">
<path d="M13.3066 -2.3266e-06C5.95767 -1.04167e-06 9.83802e-07 5.62669 2.19735e-06 12.5674C3.41089e-06 19.508 5.95767 25.1347 13.3066 25.1347C20.6555 25.1347 26.6132 19.508 26.6132 12.5673C26.6132 5.62669 20.6555 -3.61153e-06 13.3066 -2.3266e-06ZM22.7107 13.4594C22.6689 13.7389 22.6158 14.0184 22.5551 14.2978C22.4944 14.5773 22.4224 14.8567 22.3427 15.1326C22.263 15.4085 22.1758 15.6843 22.0771 15.953C21.9899 16.1931 21.8989 16.4295 21.7964 16.6624C21.694 16.8953 21.5802 17.1246 21.4436 17.3431C21.3716 17.4614 21.2919 17.5724 21.2122 17.6835C21.1933 17.7014 21.1667 17.7229 21.125 17.748C21.1174 17.7552 21.106 17.7587 21.0984 17.7623C21.0377 17.791 20.977 17.8053 20.9125 17.8017C20.2487 17.7802 19.6038 18.0597 19.1296 18.4753C18.6554 18.8909 18.314 19.4785 18.2875 20.1054C18.2799 20.2523 18.2192 20.3347 18.0902 20.4064C17.9802 20.4637 17.8664 20.5175 17.7488 20.5676C17.635 20.6142 17.5174 20.6536 17.3998 20.6894C17.2822 20.7253 17.1608 20.7539 17.0432 20.7826C16.9332 20.8077 16.8232 20.8256 16.7094 20.8363C16.5994 20.8471 16.4855 20.8506 16.3717 20.8542C15.8596 20.865 15.3513 20.8614 14.8392 20.8614C14.3271 20.8614 13.8187 20.8614 13.3066 20.8614C12.7945 20.8614 12.2862 20.8614 11.774 20.8614C11.2619 20.8614 10.7536 20.865 10.2415 20.8542C10.1277 20.8542 10.0177 20.8507 9.90385 20.8363C9.79384 20.8256 9.68003 20.8041 9.57002 20.7826C9.44863 20.7575 9.33103 20.7253 9.21343 20.6894C9.09583 20.6536 8.97824 20.6142 8.86444 20.5676C8.74684 20.521 8.63682 20.4673 8.52301 20.4064C8.52301 20.4064 8.43577 20.3455 8.40163 20.3061C8.35611 20.2487 8.32955 20.1771 8.32576 20.1054C8.2992 19.4785 7.95779 18.8909 7.4836 18.4753C7.00942 18.0597 6.36453 17.7802 5.70067 17.8017C5.55272 17.8053 5.45788 17.7623 5.37442 17.6477C5.30235 17.5474 5.23028 17.4435 5.16579 17.3396C5.02922 17.121 4.9192 16.8917 4.81298 16.6588C4.70677 16.426 4.61573 16.1859 4.53227 15.9495C4.43364 15.6772 4.34639 15.4049 4.26673 15.129C4.18707 14.8531 4.11498 14.5737 4.05429 14.2942C3.99359 14.0184 3.94049 13.7389 3.89876 13.4559C3.85703 13.1728 3.83048 12.8934 3.81531 12.6103C3.79254 12.0479 3.83427 11.4854 3.94048 10.93C3.99739 10.6255 4.07705 10.3246 4.1681 10.0272C4.25914 9.72982 4.36535 9.43603 4.48295 9.14942C4.54744 8.99536 4.61194 8.84489 4.68022 8.69441C4.7485 8.54394 4.82437 8.39705 4.90024 8.25016C4.9799 8.10326 5.05956 7.95994 5.14681 7.81664C5.19233 7.74498 5.23407 7.67691 5.28338 7.60526C5.3289 7.53718 5.37822 7.46912 5.42754 7.40105C5.71963 7.00695 6.04208 6.63075 6.39867 6.28322C6.75146 5.9357 7.1346 5.61684 7.5443 5.32664C7.96158 5.02927 8.40542 4.76772 8.87202 4.53843C9.33482 4.30913 9.82039 4.11925 10.3173 3.96519C10.7991 3.81471 11.2923 3.70365 11.7892 3.62841C12.0396 3.589 12.29 3.56392 12.5403 3.54243C12.7907 3.52451 13.0449 3.51377 13.299 3.51377C13.5532 3.51377 13.8036 3.52451 14.0577 3.54243C14.3081 3.56034 14.5622 3.589 14.8088 3.62841C15.3096 3.70365 15.8027 3.81471 16.2807 3.96519C16.7776 4.11924 17.2594 4.31272 17.726 4.53843C18.1888 4.76772 18.6327 5.02927 19.0537 5.32663C19.4634 5.61684 19.8466 5.93569 20.1994 6.28322C20.5522 6.63075 20.8784 7.00336 21.1705 7.40104C21.2198 7.46912 21.2691 7.53718 21.3147 7.60525C21.3602 7.67332 21.4057 7.74498 21.4512 7.81663C21.5385 7.95994 21.6219 8.10326 21.6978 8.25015C21.7737 8.39705 21.8495 8.54393 21.9178 8.69441C21.9861 8.84488 22.0544 8.99535 22.1151 9.14941C22.2327 9.43961 22.3389 9.72982 22.4299 10.0272C22.521 10.3246 22.6006 10.6255 22.6575 10.93C22.7638 11.4818 22.8055 12.0479 22.7827 12.6103C22.7714 12.8934 22.741 13.1764 22.6993 13.4559L22.7107 13.4594Z" fill="#FE572A"/>
</svg>

<svg xmlns="http://www.w3.org/2000/svg" width="27" height="26" fill="none" viewBox="0 0 27 26"><path fill="#fe572a" d="M13.307 0C5.957 0 0 5.627 0 12.567s5.958 12.568 13.307 12.568 13.306-5.627 13.306-12.568S20.656 0 13.307 0m9.404 13.46a13 13 0 0 1-.634 2.493 12 12 0 0 1-.28.71 5 5 0 0 1-.353.68c-.072.118-.152.23-.232.34a.5.5 0 0 1-.087.065q-.014.01-.027.014a.4.4 0 0 1-.185.04c-.664-.022-1.31.258-1.783.673-.475.416-.816 1.003-.842 1.63-.008.147-.069.23-.198.301q-.165.086-.341.162a4 4 0 0 1-.35.121q-.177.052-.356.094-.164.038-.334.053-.166.015-.337.018c-.512.011-1.02.007-1.533.007h-3.065c-.512 0-1.02.004-1.532-.007-.114 0-.224-.003-.338-.018a3.6 3.6 0 0 1-.69-.147 4 4 0 0 1-.35-.121 3 3 0 0 1-.341-.162s-.087-.06-.121-.1a.36.36 0 0 1-.076-.2c-.027-.628-.368-1.215-.842-1.63-.475-.416-1.12-.696-1.783-.674-.148.003-.243-.04-.327-.154a6 6 0 0 1-.208-.308 6 6 0 0 1-.353-.681 13 13 0 0 1-.759-2.365 12 12 0 0 1-.155-.838 7.4 7.4 0 0 1 .042-2.526 8 8 0 0 1 .227-.903q.137-.447.315-.878.096-.23.197-.455.105-.224.22-.444.118-.22.247-.433c.045-.072.087-.14.136-.212q.07-.102.145-.204a9.2 9.2 0 0 1 2.116-2.074 9.8 9.8 0 0 1 2.773-1.361q.725-.225 1.472-.338c.25-.039.501-.064.751-.086q.377-.027.759-.028.38 0 .759.028c.25.018.504.047.75.086q.755.113 1.473.337c.497.154.978.348 1.445.573q.696.344 1.328.789A9.2 9.2 0 0 1 21.17 7.4q.074.102.144.204l.136.212q.131.213.247.433a10 10 0 0 1 .417.9q.178.433.315.877c.091.298.17.599.227.903a7.3 7.3 0 0 1 .042 2.526z"/></svg>
